X: 24612
T: Mac Ùmhal
R: hornpipe
M: 4/4
K: Gmajor
Bc|:d z g z d2Bc|dedB A2dc|B z B z BABc|
d z G z A2GA|BdAd GdFd|EGcB A2GA|Bdgd ecAd|
B z G z G2ef|g z dc B2dc|BdGB A2GA|B z Bc dedB|
d z A z A2Bd|e z c z g2fe|dgdB A2Bc|
dgcg BGAd|1 B z G z G2Bc:|2 B z G z G4||

